TCanvas/rotate.svg

<svg xmlns="http://www.w3.org/2000/svg" viewBox="0 0 1200 800" preserveAspectRatio="none" width="1200" height="800">
 <defs>
  <pattern id="pat_3003_416" patternUnits="userSpaceOnUse" width="4" height="4">
   <path d="M2,1h1v1h-1zM0,3h1v1h-1z" style="fill: green;"></path>
  </pattern>
 </defs>
 <title>
  ROOT canvas
 </title>
 <rect x="0" y="0" width="1200" height="800" style="fill: white;"></rect>
 <g>
  <g transform="translate(120,80) rotate(-90) translate(-640,0)">
   <title></title>
   <rect x="0" y="0" width="640" height="960" style="fill: white; stroke: black; stroke-width: 1;"></rect>
   <svg x="0" y="0" overflow="hidden" width="640" height="960" viewBox="0 0 640 960">
    <g>
     <path d="M0,960h176v-1h3v1h3v-1h4v1h16v-1h3v1h3v-1h3v-4h3v1h4v1h3v-7h3v-3h3v2h3v-15h4v-2h3v4h3v-28h3v3h3v-26h4v-11h3v-34h3v-21h3v-24h3v-26h4v-24h3v-58h3v-50h3v-19h3v-72h4v-55h3v-71h3v-24h3v-73h3v-34h4v-67h3v-45h3v-22h3v-15h3v-41h4v-14h3v-39h3v26h3v-20h3v46h4v7h3v39h3v60h3v74h3v29h4v45h3v49h3v40h3v44h3v51h4v73h3v49h3v13h3v65h3v27h4v37h3v29h3v21h3v21h3v19h4v1h3v27h3v7h3v4h3v6h4v11h3v4h3v3h3v6h3v-3h4v2h3v-2h3v3h10v1h6v-2h3v2h189L640,963L0,963Z" style="stroke-linejoin: miter; stroke: rgb(0,0,153); stroke-width: 1; fill: url(#pat_3003_416);"></path>
    </g>
    <g>
     <path d="M0,919.33c0.22,0.43,6.01,11.89,6.4,12.71s5.98,13.54,6.4,14.38s4.5,12.28,6.4,11.6s6.11,-15.41,6.4,-16.14s6.1,-15.38,6.4,-16.12s6.06,-14.68,6.4,-15.46s5.99,-13.31,6.4,-14.15s5.86,-11.29,6.4,-12.22s5.59,-8.67,6.4,-9.71s5.07,-5.65,6.4,-6.69s4.29,-3.01,6.4,-3.25s4.35,0.08,6.4,0.49s5.33,3.35,6.4,4.42s5.81,7.43,6.4,8.38s6.03,11.44,6.4,12.24s6.15,15.15,6.4,15.84s6.21,18.42,6.4,19.03s5.6,20.64,6.4,21.67s5.42,4.66,6.4,3.6s6.27,-24.28,6.4,-24.8s6.27,-24.55,6.4,-25.07s6.25,-23.85,6.4,-24.39s6.22,-22.12,6.4,-22.71s6.17,-19.36,6.4,-20.03s6.03,-15.56,6.4,-16.36s5.69,-10.77,6.4,-11.77s4.28,-6.21,6.4,-6.34s4.27,-0.32,6.4,-0.19s5.79,5.58,6.4,6.55s6.15,13,6.4,13.69s6.27,20.55,6.4,21.07s6.32,28.07,6.4,28.48s6.34,35.37,6.4,35.71s5.82,41.6,6.4,42.55s6.34,-21.18,6.4,-21.53s6.37,-54.03,6.4,-54.27s6.38,-58.56,6.4,-58.78s6.38,-61.96,6.4,-62.18s6.38,-64.12,6.4,-64.33s6.38,-64.94,6.4,-65.15s6.38,-64.36,6.4,-64.57s6.38,-62.36,6.4,-62.58s6.37,-58.94,6.4,-59.18s6.37,-54.17,6.4,-54.43s6.36,-48.12,6.4,-48.42s6.34,-40.93,6.4,-41.28s6.3,-32.72,6.4,-33.17s6.19,-23.65,6.4,-24.28s3.2,-14.8,6.4,-14.8s9.6,0,12.8,0s6.19,14.17,6.4,14.8s6.3,23.82,6.4,24.28s6.34,32.82,6.4,33.17s6.36,40.99,6.4,41.28s6.37,48.16,6.4,48.42s6.37,54.19,6.4,54.43s6.38,58.96,6.4,59.18s6.38,62.36,6.4,62.58s6.38,64.37,6.4,64.57s6.38,64.94,6.4,65.15s6.38,64.12,6.4,64.33s6.38,61.96,6.4,62.18s6.37,58.54,6.4,58.78s6.34,53.92,6.4,54.27s5.82,22.48,6.4,21.53s6.34,-42.21,6.4,-42.55s6.32,-35.3,6.4,-35.71s6.27,-27.96,6.4,-28.48s6.15,-20.38,6.4,-21.07s5.79,-12.73,6.4,-13.69s4.27,-6.41,6.4,-6.55s4.28,0.05,6.4,0.19s5.69,5.34,6.4,6.34s6.03,10.97,6.4,11.77s6.17,15.7,6.4,16.36s6.22,19.44,6.4,20.03s6.25,22.17,6.4,22.71s6.27,23.87,6.4,24.39s6.27,24.56,6.4,25.07s5.42,23.73,6.4,24.8s5.6,-2.56,6.4,-3.6s6.21,-21.06,6.4,-21.67s6.15,-18.34,6.4,-19.03s6.03,-15.04,6.4,-15.84s5.81,-11.29,6.4,-12.24s5.33,-7.32,6.4,-8.38s4.35,-4.01,6.4,-4.42s4.29,-0.73,6.4,-0.49s5.07,2.22,6.4,3.25s5.59,5.65,6.4,6.69s5.86,8.78,6.4,9.71s5.99,11.38,6.4,12.22s6.06,13.37,6.4,14.15s6.1,14.71,6.4,15.46s6.11,15.39,6.4,16.12s4.5,15.47,6.4,16.14s5.98,-10.76,6.4,-11.6s6.01,-13.56,6.4,-14.38s6.18,-12.29,6.4,-12.71" style="fill: none; stroke: blue; stroke-width: 4;"></path>
    </g>
    <g>
     <g transform="translate(35,811)">
      <path style="stroke: red; stroke-width: 2; fill: none;" d="M0,0L-32,0m0,4v-8M0,0L32,0m0,4v-8"></path>
     </g>
     <g transform="translate(92,739)">
      <path style="stroke: red; stroke-width: 2; fill: none;" d="M0,0L-32,0m0,4v-8M0,0L32,0m0,4v-8M0,0L0,7m4,0h-8M0,0L0,-7m4,0h-8"></path>
     </g>
     <g transform="translate(149,669)">
      <path style="stroke: red; stroke-width: 2; fill: none;" d="M0,0L-32,0m0,4v-8M0,0L32,0m0,4v-8M0,0L0,15m4,0h-8M0,0L0,-15m4,0h-8"></path>
     </g>
     <g transform="translate(206,602)">
      <path style="stroke: red; stroke-width: 2; fill: none;" d="M0,0L-32,0m0,4v-8M0,0L32,0m0,4v-8M0,0L0,22m4,0h-8M0,0L0,-22m4,0h-8"></path>
     </g>
     <g transform="translate(263,538)">
      <path style="stroke: red; stroke-width: 2; fill: none;" d="M0,0L-32,0m0,4v-8M0,0L32,0m0,4v-8M0,0L0,30m4,0h-8M0,0L0,-30m4,0h-8"></path>
     </g>
     <g transform="translate(320,478)">
      <path style="stroke: red; stroke-width: 2; fill: none;" d="M0,0L-32,0m0,4v-8M0,0L32,0m0,4v-8M0,0L0,37m4,0h-8M0,0L0,-37m4,0h-8"></path>
     </g>
     <g transform="translate(377,424)">
      <path style="stroke: red; stroke-width: 2; fill: none;" d="M0,0L-32,0m0,4v-8M0,0L32,0m0,4v-8M0,0L0,45m4,0h-8M0,0L0,-45m4,0h-8"></path>
     </g>
     <g transform="translate(434,374)">
      <path style="stroke: red; stroke-width: 2; fill: none;" d="M0,0L-32,0m0,4v-8M0,0L32,0m0,4v-8M0,0L0,52m4,0h-8M0,0L0,-52m4,0h-8"></path>
     </g>
     <g transform="translate(491,331)">
      <path style="stroke: red; stroke-width: 2; fill: none;" d="M0,0L-32,0m0,4v-8M0,0L32,0m0,4v-8M0,0L0,60m4,0h-8M0,0L0,-60m4,0h-8"></path>
     </g>
     <g transform="translate(548,294)">
      <path style="stroke: red; stroke-width: 2; fill: none;" d="M0,0L-32,0m0,4v-8M0,0L32,0m0,4v-8M0,0L0,67m4,0h-8M0,0L0,-67m4,0h-8"></path>
     </g>
     <g transform="translate(605,263)">
      <path style="stroke: red; stroke-width: 2; fill: none;" d="M0,0L-32,0m0,4v-8M0,0L32,0m0,4v-8M0,0L0,75m4,0h-8M0,0L0,-75m4,0h-8"></path>
     </g>
     <path d="M30,806v10h10v-10zM87,734v10h10v-10zM144,664v10h10v-10zM201,596v10h10v-10zM258,533v10h10v-10zM315,473v10h10v-10zM372,419v10h10v-10zM429,369v10h10v-10zM486,326v10h10v-10zM543,289v10h10v-10zM600,258v10h10v-10z" style="stroke: cyan; fill: cyan;"></path>
    </g>
   </svg>
   <g>
    <g transform="translate(0,960)">
     <line x1="0" y1="0" x2="640" y2="0" style="stroke: black; stroke-width: 1;"></line>
     <path d="M0,-24v24m16,-12v12m16,-12v12m16,-12v12m16,-24v24m16,-12v12m16,-12v12m16,-12v12m16,-24v24m16,-12v12m16,-12v12m16,-12v12m16,-24v24m16,-12v12m16,-12v12m16,-12v12m16,-24v24m16,-12v12m16,-12v12m16,-12v12m16,-24v24m16,-12v12m16,-12v12m16,-12v12m16,-24v24m16,-12v12m16,-12v12m16,-12v12m16,-24v24m16,-12v12m16,-12v12m16,-12v12m16,-24v24m16,-12v12m16,-12v12m16,-12v12m16,-24v24m16,-12v12m16,-12v12m16,-12v12m16,-24v24" style="stroke: black; stroke-width: 1;"></path>
     <g font-family="Arial" font-size="28" space="preserve">
      <text fill="black" text-anchor="middle" dy=".8em" transform="translate(0,6)">
       -10
      </text>
      <text fill="black" text-anchor="middle" dy=".8em" transform="translate(64,6)">
       -8
      </text>
      <text fill="black" text-anchor="middle" dy=".8em" transform="translate(128,6)">
       -6
      </text>
      <text fill="black" text-anchor="middle" dy=".8em" transform="translate(192,6)">
       -4
      </text>
      <text fill="black" text-anchor="middle" dy=".8em" transform="translate(256,6)">
       -2
      </text>
      <text fill="black" text-anchor="middle" dy=".8em" transform="translate(320,6)">
       0
      </text>
      <text fill="black" text-anchor="middle" dy=".8em" transform="translate(384,6)">
       2
      </text>
      <text fill="black" text-anchor="middle" dy=".8em" transform="translate(448,6)">
       4
      </text>
      <text fill="black" text-anchor="middle" dy=".8em" transform="translate(512,6)">
       6
      </text>
      <text fill="black" text-anchor="middle" dy=".8em" transform="translate(576,6)">
       8
      </text>
      <text fill="black" text-anchor="middle" dy=".8em" transform="translate(640,6)">
       10
      </text>
     </g>
    </g>
    <g>
     <line x1="0" y1="0" x2="0" y2="960" style="stroke: black; stroke-width: 1;"></line>
     <path d="M36,960h-36m18,-37h-18m18,-38h-18m18,-37h-18m36,-38h-36m18,-37h-18m18,-37h-18m18,-38h-18m36,-37h-36m18,-37h-18m18,-38h-18m18,-37h-18m36,-38h-36m18,-37h-18m18,-37h-18m18,-38h-18m36,-37h-36m18,-37h-18m18,-38h-18m18,-37h-18m36,-38h-36m18,-37h-18m18,-37h-18m18,-38h-18m36,-37h-36m18,-37h-18" style="stroke: black; stroke-width: 1;"></path>
     <g font-family="Arial" font-size="28" space="preserve">
      <text fill="black" text-anchor="end" dy=".4em" transform="translate(-4,960)">
       0
      </text>
      <text fill="black" text-anchor="end" dy=".4em" transform="translate(-4,810)">
       200
      </text>
      <text fill="black" text-anchor="end" dy=".4em" transform="translate(-4,661)">
       400
      </text>
      <text fill="black" text-anchor="end" dy=".4em" transform="translate(-4,511)">
       600
      </text>
      <text fill="black" text-anchor="end" dy=".4em" transform="translate(-4,362)">
       800
      </text>
      <text fill="black" text-anchor="end" dy=".4em" transform="translate(-4,212)">
       1000
      </text>
      <text fill="black" text-anchor="end" dy=".4em" transform="translate(-4,63)">
       1200
      </text>
     </g>
    </g>
   </g>
  </g>
  <g transform="translate(120,80)" font-family="Arial" font-size="16" space="preserve">
   <path d="M0,0h456v160h-456z" style="fill: rgb(242,242,242); stroke: black; stroke-width: 1;"></path>
   <text fill="black" text-anchor="start" dy=".4em" transform="translate(114,24)">
    The Legend Title
   </text>
   <rect x="14" y="47" width="86" height="30" style="fill: url(#pat_3003_416); stroke: rgb(0,0,153); stroke-width: 1;"></rect>
   <text fill="black" text-anchor="start" dy=".4em" transform="translate(114,62)">
    Histogram filled with random numbers
   </text>
   <line x1="14" y1="99" x2="100" y2="99" style="stroke: blue; stroke-width: 4;"></line>
   <text fill="black" text-anchor="start" transform="translate(114,108)">
    <tspan dy="-.1em">
     Function abs(
    </tspan>
    <tspan dy="-.6em" dx=".39em">
     sin(x)
    </tspan>
    <tspan dy="1em" dx="-1.88em">
     x
    </tspan>
    <tspan dx="-2.27em" dy="-.6em">
     ————
    </tspan>
    <tspan dx=".2em" dy=".2em">
     )
    </tspan>
   </text>
   <line x1="14" y1="136" x2="100" y2="136" style="stroke: red; stroke-width: 2;"></line>
   <line x1="57" y1="122" x2="57" y2="152" style="stroke: red; stroke-width: 2;"></line>
   <path d="M52,131v10h10v-10z" style="stroke: cyan; fill: cyan;"></path>
   <text fill="black" text-anchor="start" dy=".4em" transform="translate(114,137)">
    Graph with error bars
   </text>
  </g>
  <g transform="translate(382,4)" font-family="Arial" font-size="40" space="preserve">
   <path d="M0,0h437v49h-437z" style="fill: none;"></path>
   <text fill="black" text-anchor="middle" dy=".4em" transform="translate(219,25)">
    TLegend Example
   </text>
  </g>
 </g>
</svg>

<svg xmlns="http://www.w3.org/2000/svg" viewBox="0 0 1200 800" preserveAspectRatio="none" width="1200" height="800">
 <defs>
  <pattern id="pat_3003_416" patternUnits="userSpaceOnUse" width="4" height="4">
   <path d="M2,1h1v1h-1zM0,3h1v1h-1z" style="fill: green;"></path>
  </pattern>
 </defs>
 <title>
  ROOT canvas
 </title>
 <rect x="0" y="0" width="1200" height="800" style="fill: white;"></rect>
 <g>
  <g transform="translate(120,80) rotate(-90) translate(-640,0)">
   <title></title>
   <rect x="0" y="0" width="640" height="960" style="fill: white; stroke: black; stroke-width: 1;"></rect>
   <svg x="0" y="0" overflow="hidden" width="640" height="960" viewBox="0 0 640 960">
    <g>
     <path d="M0,960h176v-1h3v1h3v-1h4v1h16v-1h3v1h3v-1h3v-4h3v1h4v1h3v-7h3v-3h3v2h3v-15h4v-2h3v4h3v-28h3v3h3v-26h4v-11h3v-34h3v-21h3v-24h3v-26h4v-24h3v-58h3v-50h3v-19h3v-72h4v-55h3v-71h3v-24h3v-73h3v-34h4v-67h3v-45h3v-22h3v-15h3v-41h4v-14h3v-39h3v26h3v-20h3v46h4v7h3v39h3v60h3v74h3v29h4v45h3v49h3v40h3v44h3v51h4v73h3v49h3v13h3v65h3v27h4v37h3v29h3v21h3v21h3v19h4v1h3v27h3v7h3v4h3v6h4v11h3v4h3v3h3v6h3v-3h4v2h3v-2h3v3h10v1h6v-2h3v2h189L640,963L0,963Z" style="stroke-linejoin: miter; stroke: rgb(0,0,153); stroke-width: 1; fill: url(#pat_3003_416);"></path>
    </g>
    <g>
     <path d="M0,919.33C0.22,919.76,6.01,931.22,6.4,932.04S12.38,945.58,12.8,946.42S17.3,958.7,19.2,958.03S25.31,942.62,25.6,941.89S31.7,926.51,32,925.77S38.06,911.09,38.4,910.31S44.39,897,44.8,896.16S50.66,884.87,51.2,883.94S56.79,875.27,57.6,874.24S62.67,868.58,64,867.55S68.29,864.54,70.4,864.3S74.75,864.38,76.8,864.79S82.13,868.14,83.2,869.21S89.01,876.64,89.6,877.59S95.63,889.03,96,889.84S102.15,904.99,102.4,905.68S108.61,924.1,108.8,924.71S114.4,945.35,115.2,946.39S120.62,951.04,121.6,949.98S127.87,925.7,128,925.19S134.27,900.63,134.4,900.12S140.65,876.27,140.8,875.73S147.02,853.6,147.2,853.02S153.37,833.66,153.6,832.99S159.63,817.43,160,816.63S165.69,805.86,166.4,804.85S170.68,798.64,172.8,798.51S177.07,798.19,179.2,798.32S184.99,803.9,185.6,804.86S191.75,817.87,192,818.56S198.27,839.11,198.4,839.63S204.72,867.7,204.8,868.11S211.14,903.47,211.2,903.81S217.02,945.42,217.6,946.36S223.94,925.18,224,924.83S230.37,870.8,230.4,870.56S236.78,812,236.8,811.78S243.18,749.81,243.2,749.6S249.58,685.48,249.6,685.27S255.98,620.32,256,620.12S262.38,555.75,262.4,555.54S268.78,493.19,268.8,492.96S275.17,434.02,275.2,433.79S281.57,379.62,281.6,379.36S287.96,331.23,288,330.94S294.34,290.01,294.4,289.65S300.7,256.93,300.8,256.48S306.99,232.83,307.2,232.2S310.4,217.4,313.6,217.4S323.2,217.4,326.4,217.4S332.59,231.57,332.8,232.2S339.1,256.03,339.2,256.48S345.54,289.3,345.6,289.65S351.96,330.64,352,330.94S358.37,379.1,358.4,379.36S364.77,433.55,364.8,433.79S371.18,492.74,371.2,492.96S377.58,555.33,377.6,555.54S383.98,619.91,384,620.12S390.38,685.06,390.4,685.27S396.78,749.39,396.8,749.6S403.18,811.55,403.2,811.78S409.57,870.32,409.6,870.56S415.94,924.48,416,924.83S421.82,947.31,422.4,946.36S428.74,904.15,428.8,903.81S435.12,868.52,435.2,868.11S441.47,840.15,441.6,839.63S447.75,819.25,448,818.56S453.79,805.83,454.4,804.86S458.67,798.45,460.8,798.32S465.08,798.37,467.2,798.51S472.89,803.85,473.6,804.85S479.63,815.82,480,816.63S486.17,832.32,486.4,832.99S492.62,852.43,492.8,853.02S499.05,875.19,499.2,875.73S505.47,899.6,505.6,900.12S511.87,924.67,512,925.19S517.42,948.92,518.4,949.98S524,947.42,524.8,946.39S531.01,925.32,531.2,924.71S537.35,906.37,537.6,905.68S543.63,890.64,544,889.84S549.81,878.55,550.4,877.59S555.73,870.28,556.8,869.21S561.15,865.2,563.2,864.79S567.49,864.06,569.6,864.3S574.67,866.51,576,867.55S581.59,873.2,582.4,874.24S588.26,883.01,588.8,883.94S594.79,895.32,595.2,896.16S601.26,909.53,601.6,910.31S607.7,925.03,608,925.77S614.11,941.16,614.4,941.89S618.9,957.36,620.8,958.03S626.78,947.27,627.2,946.42S633.21,932.87,633.6,932.04S639.78,919.76,640,919.33" style="fill: none; stroke: blue; stroke-width: 4;"></path>
    </g>
    <g>
     <g transform="translate(35,811)">
      <path style="stroke: red; stroke-width: 2; fill: none;" d="M0,0L-32,0m0,4v-8M0,0L32,0m0,4v-8"></path>
     </g>
     <g transform="translate(92,739)">
      <path style="stroke: red; stroke-width: 2; fill: none;" d="M0,0L-32,0m0,4v-8M0,0L32,0m0,4v-8M0,0L0,7m4,0h-8M0,0L0,-7m4,0h-8"></path>
     </g>
     <g transform="translate(149,669)">
      <path style="stroke: red; stroke-width: 2; fill: none;" d="M0,0L-32,0m0,4v-8M0,0L32,0m0,4v-8M0,0L0,15m4,0h-8M0,0L0,-15m4,0h-8"></path>
     </g>
     <g transform="translate(206,602)">
      <path style="stroke: red; stroke-width: 2; fill: none;" d="M0,0L-32,0m0,4v-8M0,0L32,0m0,4v-8M0,0L0,22m4,0h-8M0,0L0,-22m4,0h-8"></path>
     </g>
     <g transform="translate(263,538)">
      <path style="stroke: red; stroke-width: 2; fill: none;" d="M0,0L-32,0m0,4v-8M0,0L32,0m0,4v-8M0,0L0,30m4,0h-8M0,0L0,-30m4,0h-8"></path>
     </g>
     <g transform="translate(320,478)">
      <path style="stroke: red; stroke-width: 2; fill: none;" d="M0,0L-32,0m0,4v-8M0,0L32,0m0,4v-8M0,0L0,37m4,0h-8M0,0L0,-37m4,0h-8"></path>
     </g>
     <g transform="translate(377,424)">
      <path style="stroke: red; stroke-width: 2; fill: none;" d="M0,0L-32,0m0,4v-8M0,0L32,0m0,4v-8M0,0L0,45m4,0h-8M0,0L0,-45m4,0h-8"></path>
     </g>
     <g transform="translate(434,374)">
      <path style="stroke: red; stroke-width: 2; fill: none;" d="M0,0L-32,0m0,4v-8M0,0L32,0m0,4v-8M0,0L0,52m4,0h-8M0,0L0,-52m4,0h-8"></path>
     </g>
     <g transform="translate(491,331)">
      <path style="stroke: red; stroke-width: 2; fill: none;" d="M0,0L-32,0m0,4v-8M0,0L32,0m0,4v-8M0,0L0,60m4,0h-8M0,0L0,-60m4,0h-8"></path>
     </g>
     <g transform="translate(548,294)">
      <path style="stroke: red; stroke-width: 2; fill: none;" d="M0,0L-32,0m0,4v-8M0,0L32,0m0,4v-8M0,0L0,67m4,0h-8M0,0L0,-67m4,0h-8"></path>
     </g>
     <g transform="translate(605,263)">
      <path style="stroke: red; stroke-width: 2; fill: none;" d="M0,0L-32,0m0,4v-8M0,0L32,0m0,4v-8M0,0L0,75m4,0h-8M0,0L0,-75m4,0h-8"></path>
     </g>
     <path d="M30,806v10h10v-10zM87,734v10h10v-10zM144,664v10h10v-10zM201,596v10h10v-10zM258,533v10h10v-10zM315,473v10h10v-10zM372,419v10h10v-10zM429,369v10h10v-10zM486,326v10h10v-10zM543,289v10h10v-10zM600,258v10h10v-10z" style="stroke: cyan; fill: cyan;"></path>
    </g>
   </svg>
   <g>
    <g transform="translate(0,960)">
     <line x1="0" y1="0" x2="640" y2="0" style="stroke: black; stroke-width: 1;"></line>
     <path d="M0,-24v24m16,-12v12m16,-12v12m16,-12v12m16,-24v24m16,-12v12m16,-12v12m16,-12v12m16,-24v24m16,-12v12m16,-12v12m16,-12v12m16,-24v24m16,-12v12m16,-12v12m16,-12v12m16,-24v24m16,-12v12m16,-12v12m16,-12v12m16,-24v24m16,-12v12m16,-12v12m16,-12v12m16,-24v24m16,-12v12m16,-12v12m16,-12v12m16,-24v24m16,-12v12m16,-12v12m16,-12v12m16,-24v24m16,-12v12m16,-12v12m16,-12v12m16,-24v24m16,-12v12m16,-12v12m16,-12v12m16,-24v24" style="stroke: black; stroke-width: 1;"></path>
     <g font-family="Arial" font-size="28" space="preserve">
      <text fill="black" text-anchor="middle" dy=".8em" transform="translate(0,6)">
       -10
      </text>
      <text fill="black" text-anchor="middle" dy=".8em" transform="translate(64,6)">
       -8
      </text>
      <text fill="black" text-anchor="middle" dy=".8em" transform="translate(128,6)">
       -6
      </text>
      <text fill="black" text-anchor="middle" dy=".8em" transform="translate(192,6)">
       -4
      </text>
      <text fill="black" text-anchor="middle" dy=".8em" transform="translate(256,6)">
       -2
      </text>
      <text fill="black" text-anchor="middle" dy=".8em" transform="translate(320,6)">
       0
      </text>
      <text fill="black" text-anchor="middle" dy=".8em" transform="translate(384,6)">
       2
      </text>
      <text fill="black" text-anchor="middle" dy=".8em" transform="translate(448,6)">
       4
      </text>
      <text fill="black" text-anchor="middle" dy=".8em" transform="translate(512,6)">
       6
      </text>
      <text fill="black" text-anchor="middle" dy=".8em" transform="translate(576,6)">
       8
      </text>
      <text fill="black" text-anchor="middle" dy=".8em" transform="translate(640,6)">
       10
      </text>
     </g>
    </g>
    <g>
     <line x1="0" y1="0" x2="0" y2="960" style="stroke: black; stroke-width: 1;"></line>
     <path d="M36,960h-36m18,-37h-18m18,-38h-18m18,-37h-18m36,-38h-36m18,-37h-18m18,-37h-18m18,-38h-18m36,-37h-36m18,-37h-18m18,-38h-18m18,-37h-18m36,-38h-36m18,-37h-18m18,-37h-18m18,-38h-18m36,-37h-36m18,-37h-18m18,-38h-18m18,-37h-18m36,-38h-36m18,-37h-18m18,-37h-18m18,-38h-18m36,-37h-36m18,-37h-18" style="stroke: black; stroke-width: 1;"></path>
     <g font-family="Arial" font-size="28" space="preserve">
      <text fill="black" text-anchor="end" dy=".4em" transform="translate(-4,960)">
       0
      </text>
      <text fill="black" text-anchor="end" dy=".4em" transform="translate(-4,810)">
       200
      </text>
      <text fill="black" text-anchor="end" dy=".4em" transform="translate(-4,661)">
       400
      </text>
      <text fill="black" text-anchor="end" dy=".4em" transform="translate(-4,511)">
       600
      </text>
      <text fill="black" text-anchor="end" dy=".4em" transform="translate(-4,362)">
       800
      </text>
      <text fill="black" text-anchor="end" dy=".4em" transform="translate(-4,212)">
       1000
      </text>
      <text fill="black" text-anchor="end" dy=".4em" transform="translate(-4,63)">
       1200
      </text>
     </g>
    </g>
   </g>
  </g>
  <g transform="translate(120,80)" font-family="Arial" font-size="16" space="preserve">
   <path d="M0,0h456v160h-456z" style="fill: rgb(242,242,242); stroke: black; stroke-width: 1;"></path>
   <text fill="black" text-anchor="start" dy=".4em" transform="translate(114,24)">
    The Legend Title
   </text>
   <rect x="14" y="47" width="86" height="30" style="fill: url(#pat_3003_416); stroke: rgb(0,0,153); stroke-width: 1;"></rect>
   <text fill="black" text-anchor="start" dy=".4em" transform="translate(114,62)">
    Histogram filled with random numbers
   </text>
   <line x1="14" y1="99" x2="100" y2="99" style="stroke: blue; stroke-width: 4;"></line>
   <text fill="black" text-anchor="start" transform="translate(114,108)">
    <tspan dy="-.1em">
     Function abs(
    </tspan>
    <tspan dy="-.6em" dx=".39em">
     sin(x)
    </tspan>
    <tspan dy="1em" dx="-1.88em">
     x
    </tspan>
    <tspan dx="-2.27em" dy="-.6em">
     ————
    </tspan>
    <tspan dx=".2em" dy=".2em">
     )
    </tspan>
   </text>
   <line x1="14" y1="136" x2="100" y2="136" style="stroke: red; stroke-width: 2;"></line>
   <line x1="57" y1="122" x2="57" y2="152" style="stroke: red; stroke-width: 2;"></line>
   <path d="M52,131v10h10v-10z" style="stroke: cyan; fill: cyan;"></path>
   <text fill="black" text-anchor="start" dy=".4em" transform="translate(114,137)">
    Graph with error bars
   </text>
  </g>
  <g transform="translate(382,4)" font-family="Arial" font-size="40" space="preserve">
   <path d="M0,0h437v49h-437z" style="fill: none;"></path>
   <text fill="black" text-anchor="middle" dy=".4em" transform="translate(219,25)">
    TLegend Example
   </text>
  </g>
 </g>
</svg>
